X:127
T: Winterleid oder Mass in allen Dingen
N: A0152
O: Europa, Mitteleuropa, Deutschland
N: Souterliedekens 1540 ad Ps. 25.
R: Romanze, Ballade, Lied
M: 4/2
L: 1/2
K: G
zGGG | _B2A2 | GFG2z
c | _BAGG | A2_B2 |
zAG=F | E2A2 | _Bcd2z
d | ddc_B | A2G2

@@@ Tune index: 127
